public/career/Career-Track.svg

<?xml version="1.0" encoding="UTF-8"?> <svg xmlns="http://www.w3.org/2000/svg" id="Layer_3" data-name="Layer 3" viewBox="0 0 90 90"><defs><style> .cls-1, .cls-2 { stroke-miterlimit: 10; } .cls-1, .cls-2, .cls-3, .cls-4 { fill: none; stroke-width: 4px; } .cls-1, .cls-4 { stroke: #ea9d00; } .cls-2, .cls-3 { stroke: #3c2cda; } .cls-3, .cls-4 { stroke-linejoin: round; } </style></defs><path id="path2524" class="cls-2" d="m30.31,65.88H10.03v13.31h20.28v-13.31Z"></path><path id="path2526" class="cls-2" d="m50.6,53.55h-20.28v25.63h20.28v-25.63Z"></path><path id="path2528" class="cls-2" d="m71.25,36.35h-20.66v42.84h20.66v-42.84Z"></path><g id="g2530"><path id="path2532" class="cls-3" d="m80.06,24.07h-19.32v-12.22h19.32l-5.87,6.37,5.87,5.85Z"></path></g><g id="g2534"><path id="path2536" class="cls-3" d="m60.74,8.47v27.87"></path></g><g id="g2538"><path id="path2540" class="cls-4" d="m9.35,50.4c7.27-3.08,14.08-7.57,20-13.5,5.92-5.92,10.42-12.73,13.5-20l3.62,7.29"></path></g><g id="g2542"><path id="path2544" class="cls-1" d="m42.85,16.9l-7.83,1.65"></path></g></svg>

<svg width="90" height="90" viewBox="0 0 90 90" fill="none" xmlns="http://www.w3.org/2000/svg">
<path d="M30.31 65.88H10.03V79.19H30.31V65.88Z" stroke="#E48747" stroke-width="4" stroke-miterlimit="10"/>
<path d="M50.6 53.55H30.32V79.18H50.6V53.55Z" stroke="#E48747" stroke-width="4" stroke-miterlimit="10"/>
<path d="M71.25 36.35H50.59V79.19H71.25V36.35Z" stroke="#E48747" stroke-width="4" stroke-miterlimit="10"/>
<path d="M80.06 24.07H60.74V11.85H80.06L74.19 18.22L80.06 24.07Z" stroke="#E48747" stroke-width="4" stroke-linejoin="round"/>
<path d="M60.74 8.47V36.34" stroke="#E48747" stroke-width="4" stroke-linejoin="round"/>
<path d="M9.35001 50.4C16.62 47.32 23.43 42.83 29.35 36.9C35.27 30.98 39.77 24.17 42.85 16.9L46.47 24.19" stroke="#E48747" stroke-width="4" stroke-linejoin="round"/>
<path d="M42.85 16.9L35.02 18.55" stroke="#E48747" stroke-width="4" stroke-miterlimit="10"/>
</svg>
